public/images/svg/logo-circulos.svg

<svg xmlns="http://www.w3.org/2000/svg" width="176.621" height="195.672" viewBox="0 0 176.621 195.672"><path d="M88.306 16.342c9.289 0 16.854 7.559 16.854 16.854 0 9.296-7.564 16.856-16.854 16.856-9.292 0-16.857-7.561-16.857-16.856-.001-9.296 7.565-16.854 16.857-16.854m0 50.046c18.304 0 33.201-14.889 33.201-33.192C121.507 14.89 106.609 0 88.306 0c-18.31 0-33.199 14.89-33.199 33.195-.001 18.304 14.889 33.193 33.199 33.193m-55.118 48.3c-9.289 0-16.845-7.559-16.845-16.852 0-9.295 7.556-16.854 16.845-16.854 9.302 0 16.865 7.56 16.865 16.854.001 9.293-7.563 16.852-16.865 16.852m33.206-16.852c0-18.308-14.89-33.199-33.205-33.199C14.896 64.637 0 79.528 0 97.836c0 18.303 14.896 33.195 33.188 33.195 18.316 0 33.206-14.892 33.206-33.195m21.912 81.49c-9.292 0-16.857-7.562-16.857-16.849 0-9.298 7.565-16.859 16.857-16.859 9.289 0 16.854 7.562 16.854 16.859-.001 9.287-7.565 16.849-16.854 16.849m0-50.051c-18.31 0-33.199 14.895-33.199 33.202 0 18.3 14.89 33.194 33.199 33.194 18.304 0 33.201-14.895 33.201-33.194 0-18.307-14.898-33.202-33.201-33.202m55.101-14.589c-9.287 0-16.851-7.557-16.851-16.85 0-9.295 7.563-16.854 16.851-16.854 9.297 0 16.855 7.56 16.855 16.854.001 9.293-7.558 16.85-16.855 16.85m0-50.049c-18.301 0-33.196 14.892-33.196 33.199 0 18.303 14.896 33.195 33.196 33.195 18.309 0 33.214-14.893 33.214-33.195 0-18.308-14.905-33.199-33.214-33.199"/></svg>

<?xml version="1.0" encoding="utf-8"?>
<!-- Generator: Adobe Illustrator 17.0.0, SVG Export Plug-In . SVG Version: 6.00 Build 0)  -->
<!DOCTYPE svg PUBLIC "-//W3C//DTD SVG 1.1//EN" "http://www.w3.org/Graphics/SVG/1.1/DTD/svg11.dtd">
<svg version="1.1" id="Layer_1" xmlns="http://www.w3.org/2000/svg" xmlns:xlink="http://www.w3.org/1999/xlink" x="0px" y="0px"
	 width="176.621px" height="195.672px" viewBox="0 0 176.621 195.672" enable-background="new 0 0 176.621 195.672"
	 xml:space="preserve">
<g>
	<path d="M88.306,16.342c9.289,0,16.854,7.559,16.854,16.854c0,9.296-7.564,16.856-16.854,16.856
		c-9.292,0-16.857-7.561-16.857-16.856C71.448,23.9,79.014,16.342,88.306,16.342 M88.306,66.388
		c18.304,0,33.201-14.889,33.201-33.192C121.507,14.89,106.609,0,88.306,0c-18.31,0-33.199,14.89-33.199,33.195
		C55.106,51.499,69.996,66.388,88.306,66.388 M33.188,114.688c-9.289,0-16.845-7.559-16.845-16.852
		c0-9.295,7.556-16.854,16.845-16.854c9.302,0,16.865,7.56,16.865,16.854C50.054,107.129,42.49,114.688,33.188,114.688
		 M66.394,97.836c0-18.308-14.89-33.199-33.205-33.199C14.896,64.637,0,79.528,0,97.836c0,18.303,14.896,33.195,33.188,33.195
		C51.504,131.031,66.394,116.139,66.394,97.836 M88.306,179.326c-9.292,0-16.857-7.562-16.857-16.849
		c0-9.298,7.565-16.859,16.857-16.859c9.289,0,16.854,7.562,16.854,16.859C105.159,171.764,97.595,179.326,88.306,179.326
		 M88.306,129.275c-18.31,0-33.199,14.895-33.199,33.202c0,18.3,14.89,33.194,33.199,33.194c18.304,0,33.201-14.895,33.201-33.194
		C121.507,144.17,106.609,129.275,88.306,129.275 M143.407,114.686c-9.287,0-16.851-7.557-16.851-16.85
		c0-9.295,7.563-16.854,16.851-16.854c9.297,0,16.855,7.56,16.855,16.854C160.263,107.129,152.704,114.686,143.407,114.686
		 M143.407,64.637c-18.301,0-33.196,14.892-33.196,33.199c0,18.303,14.896,33.195,33.196,33.195
		c18.309,0,33.214-14.893,33.214-33.195C176.621,79.528,161.716,64.637,143.407,64.637"/>
</g>
</svg>
